T: Sweet Biddy Of Ballyvourney
M: 4/4
L: 1/8
K: Gmaj
G2BG Bdde | fdge fdcA | G2BG Bdde | fdcA AGG2 :||
~g2dg ~g2ag | fdde fgaf | ~g2dg ~g2ag | fdcA AGG2 |
~g2db ~g2ag | fgag fdef | defg abag | fdcA AGG2 ||
"Variation" G2BG Bdde | fdge fdcA | G2BG Bdde | fdcA AGGE |
DGBG Bdde | fdge fdcA | G2BG Bdde | fdcA AGG2 ||
~g2dg ~g2ag | fdde fgaf | ~g2dg gbag | fdcA AGG2 |
gd (3Bcd gd (3Bcd | fgag fdef | defg abag | fdcA AGG2 ||
